src/assets/tick-square.svg

<svg xmlns="http://www.w3.org/2000/svg" width="24" height="24" fill="none">
    <path fill="currentColor"
        d="M16.19 2H7.81C4.17 2 2 4.17 2 7.81v8.37C2 19.83 4.17 22 7.81 22h8.37c3.64 0 5.81-2.17 5.81-5.81V7.81C22 4.17 19.83 2 16.19 2Zm.59 7.7-5.67 5.67a.75.75 0 0 1-1.06 0l-2.83-2.83a.754.754 0 0 1 0-1.06c.29-.29.77-.29 1.06 0l2.3 2.3 5.14-5.14c.29-.29.77-.29 1.06 0 .29.29.29.76 0 1.06Z" />
</svg>

<svg viewBox="0 0 24 24" fill="none" xmlns="http://www.w3.org/2000/svg">
    <path d="M16.19 2H7.81C4.17 2 2 4.17 2 7.81V16.18C2 19.83 4.17 22 7.81 22H16.18C19.82 22 21.99 19.83 21.99 16.19V7.81C22 4.17 19.83 2 16.19 2ZM16.78 9.7L11.11 15.37C10.97 15.51 10.78 15.59 10.58 15.59C10.38 15.59 10.19 15.51 10.05 15.37L7.22 12.54C6.93 12.25 6.93 11.77 7.22 11.48C7.51 11.19 7.99 11.19 8.28 11.48L10.58 13.78L15.72 8.64C16.01 8.35 16.49 8.35 16.78 8.64C17.07 8.93 17.07 9.4 16.78 9.7Z" fill="currentColor"/>
</svg>
